icons/media/playlist-2-24.svg

<svg width="24" height="24" viewBox="0 0 24 24" fill="none" xmlns="http://www.w3.org/2000/svg">
<path fill-rule="evenodd" clip-rule="evenodd" d="M17.25 12.1281V8.68058L12.5 9.60449V15.25C12.5 15.8258 12.2803 16.4017 11.841 16.841C10.9623 17.7197 9.53769 17.7197 8.65901 16.841C7.78033 15.9623 7.78033 14.5377 8.65901 13.659C9.29207 13.026 10.2085 12.849 11 13.1281V9.20151C11 8.73109 11.3279 8.32427 11.7876 8.22433L17.5376 7.08303C18.1609 6.94753 18.75 7.42235 18.75 8.06021V14.25C18.75 14.8258 18.5303 15.4017 18.091 15.841C17.2123 16.7197 15.7877 16.7197 14.909 15.841C14.0303 14.9623 14.0303 13.5377 14.909 12.659C15.5421 12.0259 16.4585 11.849 17.25 12.1281ZM17.25 14.25C17.25 14.0581 17.1768 13.8661 17.0303 13.7197C16.7374 13.4268 16.2626 13.4268 15.9697 13.7197C15.6768 14.0126 15.6768 14.4874 15.9697 14.7803C16.2626 15.0732 16.7374 15.0732 17.0303 14.7803C17.1768 14.6339 17.25 14.4419 17.25 14.25ZM11 15.2496C10.9999 15.0578 10.9267 14.866 10.7803 14.7197C10.4874 14.4268 10.0126 14.4268 9.71967 14.7197C9.42678 15.0126 9.42678 15.4874 9.71967 15.7803C10.0126 16.0732 10.4874 16.0732 10.7803 15.7803C10.9268 15.6339 11 15.4415 11 15.2496Z" fill="black"/>
<path fill-rule="evenodd" clip-rule="evenodd" d="M2 3.75C2 2.7835 2.7835 2 3.75 2H20.25C21.2165 2 22 2.7835 22 3.75V20.25C22 21.2165 21.2165 22 20.25 22H3.75C2.7835 22 2 21.2165 2 20.25V3.75ZM6.54376 20.5H20.25C20.3881 20.5 20.5 20.3881 20.5 20.25V3.75C20.5 3.61193 20.3881 3.5 20.25 3.5H6.54376V20.5ZM5.04376 3.5V20.5H3.75C3.61193 20.5 3.5 20.3881 3.5 20.25V3.75C3.5 3.61193 3.61193 3.5 3.75 3.5H5.04376Z" fill="black"/>
</svg>

<svg xmlns="http://www.w3.org/2000/svg" width="24" height="24"><path fill-rule="evenodd" d="M17.25 12.128V8.681l-4.75.923v5.646a2.25 2.25 0 11-1.5-2.122V9.202a1 1 0 01.788-.978l5.75-1.141a1 1 0 011.212.977v6.19a2.25 2.25 0 11-1.5-2.122zm0 2.122a.75.75 0 10-1.5 0 .75.75 0 001.5 0zm-6.25 1a.75.75 0 10-1.5 0 .75.75 0 001.5 0z"/><path fill-rule="evenodd" d="M2 3.75C2 2.784 2.784 2 3.75 2h16.5c.966 0 1.75.784 1.75 1.75v16.5A1.75 1.75 0 0120.25 22H3.75A1.75 1.75 0 012 20.25V3.75zM6.544 20.5H20.25a.25.25 0 00.25-.25V3.75a.25.25 0 00-.25-.25H6.544v17zm-1.5-17v17H3.75a.25.25 0 01-.25-.25V3.75a.25.25 0 01.25-.25h1.294z"/></svg>
